svgs/duotone/face-persevering.svg

<svg xmlns="http://www.w3.org/2000/svg" viewBox="0 0 512 512"><!--! Font Awesome Pro 6.4.2 by @fontawesome - https://fontawesome.com License - https://fontawesome.com/license (Commercial License) Copyright 2023 Fonticons, Inc. --><path class="fa-primary" style="fill:var(--fa-primary-color,inherit);opacity:var(--fa-primary-opacity,1);" d="M211.3 123.3c6.2-6.2 6.2-16.4 0-22.6s-16.4-6.2-22.6 0l-7.4 7.4c-18.9 18.9-43.2 31.4-69.5 35.7l-2.5 .4c-8.7 1.5-14.6 9.7-13.2 18.4s9.7 14.6 18.4 13.2l2.5-.4c32.9-5.5 63.3-21.1 86.8-44.7l7.4-7.4zm89.4 0l7.4 7.4c23.6 23.6 53.9 39.2 86.8 44.7l2.5 .4c8.7 1.5 17-4.4 18.4-13.2s-4.4-17-13.2-18.4l-2.5-.4c-26.3-4.4-50.6-16.9-69.5-35.7l-7.4-7.4c-6.2-6.2-16.4-6.2-22.6 0s-6.2 16.4 0 22.6zM133.5 210.7c-7.9-4.2-17.5 1.5-17.5 10.5c0 2.8 1 5.5 2.8 7.6l36 43.2-36 43.2c-1.8 2.1-2.8 4.8-2.8 7.6c0 9 9.6 14.7 17.5 10.5l89.9-47.9c10.7-5.7 10.7-21.1 0-26.8l-89.9-47.9zM396 221.1c0-9-9.6-14.7-17.5-10.5l-89.9 47.9c-10.7 5.7-10.7 21.1 0 26.8l89.9 47.9c7.9 4.2 17.5-1.5 17.5-10.5c0-2.8-1-5.5-2.8-7.6l-36-43.2 36-43.2c1.8-2.1 2.8-4.8 2.8-7.6z"/><path class="fa-secondary" style="fill:var(--fa-secondary-color,inherit);opacity:var(--fa-secondary-opacity,.4);" d="M256 512A256 256 0 1 0 256 0a256 256 0 1 0 0 512zm60.1-101.3c-11.7-13-31.6-26.7-60.1-26.7s-48.4 13.7-60.1 26.7c-5.9 6.6-16 7.1-22.6 1.2s-7.1-16-1.2-22.6C188.2 371.4 216.3 352 256 352s67.8 19.4 83.9 37.3c5.9 6.6 5.4 16.7-1.2 22.6s-16.7 5.4-22.6-1.2zm-104.8-310c6.2 6.2 6.2 16.4 0 22.6l-7.4 7.4c-23.6 23.6-53.9 39.2-86.8 44.7l-2.5 .4c-8.7 1.5-17-4.4-18.4-13.2s4.4-17 13.2-18.4l2.5-.4c26.3-4.4 50.6-16.9 69.5-35.7l7.4-7.4c6.2-6.2 16.4-6.2 22.6 0zm89.4 22.6c-6.2-6.2-6.2-16.4 0-22.6s16.4-6.2 22.6 0l7.4 7.4c18.9 18.9 43.2 31.4 69.5 35.7l2.5 .4c8.7 1.5 14.6 9.7 13.2 18.4s-9.7 14.6-18.4 13.2l-2.5-.4c-32.9-5.5-63.3-21.1-86.8-44.7l-7.4-7.4zM133.5 210.7l89.9 47.9c10.7 5.7 10.7 21.1 0 26.8l-89.9 47.9c-7.9 4.2-17.5-1.5-17.5-10.5c0-2.8 1-5.5 2.8-7.6l36-43.2-36-43.2c-1.8-2.1-2.8-4.8-2.8-7.6c0-9 9.6-14.7 17.5-10.5zM396 221.1c0 2.8-1 5.5-2.8 7.6l-36 43.2 36 43.2c1.8 2.1 2.8 4.8 2.8 7.6c0 9-9.6 14.7-17.5 10.5l-89.9-47.9c-10.7-5.7-10.7-21.1 0-26.8l89.9-47.9c7.9-4.2 17.5 1.5 17.5 10.5z"/></svg>

<svg xmlns="http://www.w3.org/2000/svg" viewBox="0 0 512 512"><!--! Font Awesome Pro 6.1.1 by @fontawesome - https://fontawesome.com License - https://fontawesome.com/license (Commercial License) Copyright 2022 Fonticons, Inc. --><defs><style>.fa-secondary{opacity:.4}</style></defs><path class="fa-primary" d="M203.9 130.7C180.4 154.3 150 169.9 117.1 175.4L114.6 175.8C105.9 177.2 97.67 171.3 96.22 162.6C94.77 153.9 100.7 145.7 109.4 144.2L111.9 143.8C138.2 139.4 162.5 126.9 181.3 108.1L188.7 100.7C194.9 94.44 205.1 94.44 211.3 100.7C217.6 106.9 217.6 117.1 211.3 123.3L203.9 130.7zM300.7 123.3C294.4 117.1 294.4 106.9 300.7 100.7C306.9 94.44 317.1 94.44 323.3 100.7L330.7 108.1C349.5 126.9 373.8 139.4 400.2 143.8L402.6 144.2C411.3 145.7 417.2 153.9 415.8 162.6C414.3 171.3 406.1 177.2 397.4 175.8L394.9 175.4C361.1 169.9 331.6 154.3 308.1 130.7L300.7 123.3zM223.4 258.6C234.1 264.3 234.1 279.7 223.4 285.4L133.5 333.3C125.6 337.6 116 331.8 116 322.9C116 320.1 116.1 317.4 118.8 315.2L154.8 272L118.8 228.8C116.1 226.6 116 223.9 116 221.1C116 212.2 125.6 206.4 133.5 210.7L223.4 258.6zM393.2 228.8L357.2 272L393.2 315.2C395 317.4 396 320.1 396 322.9C396 331.8 386.4 337.6 378.5 333.3L288.6 285.4C277.9 279.7 277.9 264.3 288.6 258.6L378.5 210.7C386.4 206.4 396 212.2 396 221.1C396 223.9 395 226.6 393.2 228.8V228.8z"/><path class="fa-secondary" d="M0 256C0 114.6 114.6 0 256 0C397.4 0 512 114.6 512 256C512 397.4 397.4 512 256 512C114.6 512 0 397.4 0 256zM316.1 410.7C322 417.3 332.1 417.8 338.7 411.9C345.3 405.1 345.8 395.9 339.9 389.3C323.8 371.4 295.7 352 255.1 352C216.3 352 188.2 371.4 172.1 389.3C166.2 395.9 166.7 405.1 173.3 411.9C179.9 417.8 189.1 417.3 195.9 410.7C207.6 397.7 227.5 384 255.1 384C284.5 384 304.4 397.7 316.1 410.7H316.1zM188.7 100.7L181.3 108.1C162.5 126.9 138.2 139.4 111.9 143.8L109.4 144.2C100.7 145.7 94.77 153.9 96.22 162.6C97.67 171.3 105.9 177.2 114.6 175.8L117.1 175.4C150 169.9 180.4 154.3 203.9 130.7L211.3 123.3C217.6 117.1 217.6 106.9 211.3 100.7C205.1 94.44 194.9 94.44 188.7 100.7V100.7zM308.1 130.7C331.6 154.3 361.1 169.9 394.9 175.4L397.4 175.8C406.1 177.2 414.3 171.3 415.8 162.6C417.2 153.9 411.3 145.7 402.6 144.2L400.2 143.8C373.8 139.4 349.5 126.9 330.7 108.1L323.3 100.7C317.1 94.44 306.9 94.44 300.7 100.7C294.4 106.9 294.4 117.1 300.7 123.3L308.1 130.7zM133.5 210.7C125.6 206.4 116 212.2 116 221.1C116 223.9 116.1 226.6 118.8 228.8L154.8 272L118.8 315.2C116.1 317.4 116 320.1 116 322.9C116 331.8 125.6 337.6 133.5 333.3L223.4 285.4C234.1 279.7 234.1 264.3 223.4 258.6L133.5 210.7zM396 221.1C396 212.2 386.4 206.4 378.5 210.7L288.6 258.6C277.9 264.3 277.9 279.7 288.6 285.4L378.5 333.3C386.4 337.6 396 331.8 396 322.9C396 320.1 395 317.4 393.2 315.2L357.2 272L393.2 228.8C395 226.6 396 223.9 396 221.1V221.1z"/></svg>
